X:6
T:No.60 Tommy Bhetty's Waltz
C:waltz
M:3/4
L:1/8
K:G
G3B dB|G3B dB|d2b3a|ga fg ef|
G3B dB|G3B dB|D2F2A2|c2B2A2|
G3B dB|G3B dB|d2b3a|ga fg ef|
dg3Bc|d3c AF|G2B3A|[1G4D2:|[2G3gfg||
a2f2d2|A2F2D2|C2b3a|ga fg ef|
d3ed2|B3AB2|D2F2A2|c2B2A2|
d2BcdB|db3af|g2b3a|ga fg ef|
dg3Bc|d3c AF|G2B3A|[1G3gfg:|[2G6||
